lib/brands/logos/pfizer.svg

<svg xmlns="http://www.w3.org/2000/svg" fill="none" aria-hidden="true" viewBox="0 0 134 88"><g id="Pfizer"><path id="Vector" fill="#4484BF" fill-rule="evenodd" d="M126.96 38.7959C126.96 41.145 125.17 43.1589 122.821 43.1589C120.807 43.1589 119.018 41.3689 119.018 39.3558C119.018 39.0199 119.13 38.5728 119.242 38.2376H119.018C115.103 41.1457 113.201 51.7727 112.082 55.4654H104.252L109.397 37.9017L106.265 37.7897L107.159 35.4407H117.786L116.78 38.9087C118.122 36.7828 120.36 34.9936 123.044 34.9936C125.17 34.9928 126.96 36.6708 126.96 38.7959V38.7959ZM130.65 43.494C130.65 15.8632 88.7026 5.90723 66.8888 5.90723C45.5228 5.90723 3.34998 15.7512 3.34998 43.27C3.34998 58.5959 17.4441 68.9982 30.309 74.2561H30.4209L42.614 32.3079C45.1869 23.3589 49.102 14.074 59.9529 14.074C63.756 14.074 68.7899 15.752 68.7899 20.45C68.7899 23.023 66.8888 25.4832 64.2039 25.4832C61.9668 25.4832 60.0649 23.694 60.0649 21.457C60.0649 18.7721 62.078 17.43 64.539 17.318C63.756 15.8632 61.9668 15.3041 60.4 15.3041C53.0178 15.3041 51.3398 30.406 49.773 35.44H63.3081L57.4919 55.4638H49.6618L54.807 37.9002H49.1027L41.2719 64.4121C40.0418 68.663 38.4757 72.5781 37.692 76.9418C46.9769 79.7379 56.9328 81.1927 66.6649 81.1927C88.3675 81.1927 130.65 71.6846 130.65 43.494V43.494ZM104.028 42.1519C104.028 43.494 103.804 44.9488 103.357 46.1789H89.5976C89.0385 47.8569 88.3675 49.87 88.3675 51.6592C88.3675 53.226 89.2617 53.897 90.6038 53.897C93.1767 53.897 94.0709 50.2059 94.742 48.304H102.798C101.231 53.3387 95.8609 56.4708 90.8269 56.4708C85.4586 56.4708 81.4308 53.7851 81.4308 48.0808C81.4308 40.5859 87.3605 34.433 94.9667 34.433C99.6655 34.433 104.028 36.6708 104.028 42.1519ZM83.7806 35.44L71.5868 53.114L78.7467 53.226L78.0756 55.4638H60.7367L72.8177 37.789H65.7699L66.4409 35.44H83.7806V35.44ZM40.041 33.2029C40.041 43.382 32.658 46.1789 23.821 46.1789H21.6959L18.7878 55.4638H10.9569L18.7878 28.057V27.945H15.4318L15.9909 25.5967H30.5329C35.6788 25.5967 40.041 27.274 40.041 33.2029V33.2029ZM96.9798 39.0199C96.9798 37.7898 96.0856 36.8948 94.8547 36.8948C91.9474 36.8948 90.9397 41.5928 90.3806 43.8307H95.9736C96.3088 42.1519 96.9798 40.5859 96.9798 39.0199V39.0199ZM31.875 31.077C31.875 28.84 30.6449 27.945 28.407 27.945H27.065L22.3669 43.8299H23.9329C29.526 43.9419 31.875 35.7759 31.875 31.077V31.077Z" clip-rule="evenodd"/></g></svg>

<svg xmlns="http://www.w3.org/2000/svg" fill="none" aria-hidden="true" viewBox="0 0 134 88"><path fill="#4484BF" fill-rule="evenodd" d="M126.96 38.796c0 2.349-1.79 4.363-4.139 4.363-2.014 0-3.803-1.79-3.803-3.803 0-.336.112-.783.224-1.118h-.224c-3.915 2.908-5.817 13.535-6.936 17.227h-7.83l5.145-17.563-3.132-.112.894-2.35h10.627l-1.006 3.469c1.342-2.126 3.58-3.915 6.264-3.915 2.126-.001 3.916 1.677 3.916 3.802Zm3.69 4.698c0-27.63-41.947-37.587-63.761-37.587-21.366 0-63.539 9.844-63.539 37.363 0 15.326 14.094 25.728 26.959 30.986h.112l12.193-41.948c2.573-8.95 6.488-18.234 17.339-18.234 3.803 0 8.837 1.678 8.837 6.376 0 2.573-1.901 5.033-4.586 5.033-2.237 0-4.14-1.789-4.14-4.026 0-2.685 2.014-4.027 4.475-4.139-.783-1.455-2.572-2.014-4.139-2.014-7.382 0-9.06 15.102-10.627 20.136h13.535l-5.816 20.024h-7.83L54.807 37.9h-5.704l-7.831 26.512c-1.23 4.251-2.796 8.166-3.58 12.53 9.285 2.796 19.24 4.25 28.973 4.25 21.703 0 63.985-9.507 63.985-37.698Zm-26.622-1.342c0 1.342-.224 2.797-.671 4.027h-13.76c-.558 1.678-1.23 3.691-1.23 5.48 0 1.567.895 2.238 2.237 2.238 2.573 0 3.467-3.691 4.138-5.593h8.056c-1.567 5.035-6.937 8.167-11.971 8.167-5.368 0-9.396-2.686-9.396-8.39 0-7.495 5.93-13.648 13.536-13.648 4.698 0 9.061 2.238 9.061 7.719ZM83.781 35.44 71.587 53.114l7.16.112-.671 2.238h-17.34l12.082-17.675H65.77l.67-2.349h17.34Zm-43.74-2.237c0 10.179-7.383 12.976-16.22 12.976h-2.125l-2.908 9.285h-7.831l7.83-27.407v-.112h-3.355l.559-2.348h14.542c5.146 0 9.508 1.677 9.508 7.606ZM96.98 39.02c0-1.23-.894-2.125-2.125-2.125-2.908 0-3.915 4.698-4.474 6.936h5.593c.335-1.68 1.006-3.245 1.006-4.811Zm-65.105-7.943c0-2.237-1.23-3.132-3.468-3.132h-1.342L22.367 43.83h1.566c5.593.112 7.942-8.054 7.942-12.753Z" clip-rule="evenodd"/></svg>
